lib/assets/Icon_MinusSign-1.svg

<svg height="14.613" viewBox="0 0 14.613 14.613" width="14.613" xmlns="http://www.w3.org/2000/svg" xmlns:xlink="http://www.w3.org/1999/xlink"><clipPath id="a"><path d="m0 0h14.613v14.613h-14.613z"/></clipPath><g clip-path="url(#a)"><path d="m7.855.424-2.689 2.689c-1.051 1.015-2.106 2.071-2.052 2.053l-2.69 2.69a1.452 1.452 0 0 0 2.053 2.052l2.689-2.689 2.053-2.053 2.689-2.689a1.452 1.452 0 0 0 -2.053-2.053z" transform="matrix(.70710678 .70710678 -.70710678 .70710678 7.307 0)"/></g></svg>

<svg xmlns="http://www.w3.org/2000/svg" xmlns:xlink="http://www.w3.org/1999/xlink" width="14.613" height="14.613" viewBox="0 0 14.613 14.613"><defs><style>.a{fill:none;}.b{clip-path:url(#a);}</style><clipPath id="a"><rect class="a" width="14.613" height="14.613"/></clipPath></defs><g class="b"><path d="M7.855.424,5.166,3.113C4.115,4.128,3.06,5.184,3.114,5.166L.424,7.856A1.452,1.452,0,0,0,2.477,9.908L5.166,7.219,7.219,5.166,9.908,2.477A1.452,1.452,0,0,0,7.855.424Z" transform="translate(7.307 0) rotate(45)"/></g></svg>
